X:1
T:Title
%%score [ 1 ( 2 3 ) 4 5 ]
L:1/8
Q:1/4=80
M:4/4
K:Gmin
V:1 treble nm="S"
V:2 treble nm="A"
V:3 treble 
V:4 treble-8 nm="T"
V:5 bass nm="B"
V:1
!pp! D2 DD (E4- |!<(! E!<)!!>(!G FE) D3!>)! z |!p! ^F2!<(! FF (G4-!<)! | G!>(!B AG)!>)! ^F3 z | %4
w: He- li- ge An-|* * * * de,|San- ning- ens An-|* * * * de,|
!mp! d4-!<(! d!<)!B AG |!>(! A4!>)! A2 z2 |!p! c2 cc B2 B2 | _A>A AA G2 G2 | z2!<(! A=B c2 d2!<)! | %9
w: Kom * att oss led-|sa- ga!|Låt oss ej fal- la|el- ler oss för- vil- la,|Men till må- let|
!f! e2!>(! cB _A2 G2!>)! |[M:5/4]!p! ^F3 F G3 G EE |[M:4/4]!>(! E4 D2!>)! z2 |!pp! F2 FF E2 E2 | %13
w: dra- ga I tro- nes|ljus för- trös- tan- de och|stil- la!|Vis- het, o Her- re,|
 _A2 AA G2 G2 |!mf!!<(! c2 B!<)!B e2 d^c |!p! d3 ^F G2 G2 | E2 EE D4 |!>(! D4-!>)! D2 z2 |] %18
w: giv oss av höj- den,|vis- het av höj- den oss|giv, av höj- den,|vis- het, o Her-|re! *|
V:2
!pp! A,2 A,A, (B,4- | B,E DB,) A,3 z |!p! D2 DD (E4- | EG ^F=E) D3 z |!mp! z2 F2 E3 [DE] | %5
w: He- li- ge An-|* * * * de,|San- ning- ens An-|* * * * de,|Kom att led-|
 (F2 E2) D2 z2 |!p! E2 EE D2 D2 | E>E EE D2 D2 | z2 ^FG _A2 A2 |!f! G2 _AG F2 _E2 | %10
w: sa- * ga!|Låt oss ej fal- la|el- ler oss för- vil- la,|Men till må- let|dra- ga I tro- nes|
[M:5/4]!p! D3 D (D6 |[M:4/4] C2) C2 =B,2 z2 |!pp! _A,2 A,A, G,2 G,2 | E2 EE D2 D2 |!mf! _A2 GG G4 | %15
w: ljus för- trös-|* tan- de!|Vis- het, o Her- re,|giv oss av höj- den,|vis- het av höj-|
!p! G3 D E2 D2 | D3 ^C (D2 =C2) | =B,4- B,2 z2 |] %18
w: den, av höj- den,|vis- het, Her- *|re! *|
V:3
 x8 | x8 | x8 | x8 | x8 | ^C4 D2 x2 | x8 | x8 | x8 | x8 |[M:5/4] x10 |[M:4/4] x8 | x8 | x8 | x8 | %15
 x8 | x8 | x8 |] %18
V:4
!pp! ^F2 FF G4- | GB AG ^F3 z |!p! A2 AA (B4- | Bd cB) A3 z |!mf! z2 _A2 G3 G | G4 ^F2 z2 | z8 | %7
w: He- li- ge An-|* * * * de,|San- ning- ens An-|* * * * de,|Kom att led-|sa- ga!||
!mp! c2 cc =B2 B2 | z2 cd e2 f2 |!f! e2 e_d c2 B2 |[M:5/4]!p! c3 c c2 =B2 c_B |[M:4/4] A4 =B2 z2 | %12
w: Låt oss ej fal- la|Men till må- let|dra- ga I tro- nes|ljus för- trös- tan- de och|stil- la!|
 z8 |!mp! c2 cc =B2 _B2 |!mf! e2 dd c2 BA |!p! B3 A G2 G2 | G3 G (G2 =E^F) | G4- G2 z2 |] %18
w: |Vis- het, o Her- re,|vis- het av höj- den oss|giv, av höj- den|vis- het, Her- * *|re! *|
V:5
!pp! D,6 D,^C, | D,4 D,3 z |!p! D,6 D,^C, | D,4 D,3 z |!mf! z2 =B,,2 C,3 _B,, | A,,4 D,2 z2 | %6
w: He- li- ge|An- de,|San- ning- ens|An- de,|Kom att led-|sa- ga!|
!p! z4 z3/2 D,/ D,D, | D,2 D,2 D,>D, D,D, | E,2 D,2 C,2 _C,2 |!f! (B,,2 C,)=E, F,2 G,2 | %10
w: Låt oss ej|fal- la el- ler oss för-|vil- la, Men till|må- * let dra- ga|
[M:5/4]!p! _A,2 A,A, G,6- |[M:4/4] G,2 ^F,2 G,2 z2 |!pp! z4 G,,3 D, | D,4 D,3 D |!mf! D3 D, D,4- | %15
w: stil- la, för- trös-|* tan- de!|Vis- het,|Her- re, av|höj- den giv,|
!p! D,3 C, B,,2 B,,2 | C,3 A,, D,4 | [G,,D,]4- [G,,D,]2 z2 |] %18
w: * av höj- den|vis- het, Her-|re! *|

